X: 39014
T: Swallowtail, The
R: jig
M: 6/8
K: Aminor
A/B/|:cAA eAA|cBA edc|BGG dGG|gfe dcB|
cAA eAA|cBA efg|age dcB|1 cAA A2 A/B/:|2 cAA A2d||
|:efg a3|age dBG|GBd g3|egd BAG|
efg a3|age efg|age dcB|1 cAA A2d:|2 cAA A2 A/B/||

